svgs/nothing_widgets_pro.svg

<svg width="192" height="192" viewBox="0 0 192 192" fill="none" xmlns="http://www.w3.org/2000/svg">
<rect x="110" y="110" width="60" height="60" rx="12" stroke="black" stroke-width="12" stroke-linejoin="round"/>
<path d="M117.111 69.1669C117.111 72.3273 119.673 74.8892 122.833 74.8892H130.519L135.954 80.324C138.188 82.5587 141.812 82.5587 144.046 80.324L149.481 74.8892H157.167C160.327 74.8892 162.889 72.3273 162.889 69.1669V61.481L168.324 56.0463C170.559 53.8116 170.559 50.1884 168.324 47.9537L162.889 42.519V34.8331C162.889 31.6727 160.327 29.1108 157.167 29.1108H149.481L144.046 23.676C141.812 21.4413 138.188 21.4413 135.954 23.676L130.519 29.1108H122.833C119.673 29.1108 117.111 31.6727 117.111 34.8331V42.519L111.676 47.9537C109.441 50.1884 109.441 53.8116 111.676 56.0463L117.111 61.481V69.1669Z" stroke="black" stroke-width="12" stroke-linejoin="round"/>
<rect x="22" y="22" width="60" height="148" rx="30" stroke="black" stroke-width="12" stroke-linejoin="round"/>
</svg>

<svg xmlns="http://www.w3.org/2000/svg" width="192" height="192" fill="none" viewBox="0 0 192 192"><rect width="60" height="60" x="110" y="110" stroke="#000" stroke-linejoin="round" stroke-width="12" rx="12"/><path stroke="#000" stroke-linejoin="round" stroke-width="12" d="M117.111 69.167a5.72 5.72 0 0 0 5.722 5.722h7.686l5.435 5.435a5.72 5.72 0 0 0 8.092 0l5.435-5.435h7.686a5.72 5.72 0 0 0 5.722-5.722V61.48l5.435-5.435a5.72 5.72 0 0 0 0-8.092l-5.435-5.435v-7.686a5.72 5.72 0 0 0-5.722-5.722h-7.686l-5.435-5.435a5.72 5.72 0 0 0-8.092 0l-5.435 5.435h-7.686a5.72 5.72 0 0 0-5.722 5.722v7.686l-5.435 5.435a5.72 5.72 0 0 0 0 8.092l5.435 5.435z"/><rect width="60" height="148" x="22" y="22" stroke="#000" stroke-linejoin="round" stroke-width="12" rx="30"/></svg>
